Sources/FrostedUI/Resources/Icons.xcassets/rotateCard20.imageset/rotate-card-20.svg

<svg width="20" height="20" viewBox="0 0 20 20" fill="none" xmlns="http://www.w3.org/2000/svg" data-fui-icon="true">
  <path
    d="M5.5 4.11536C5.5 1.76734 7.63361 -0.00387967 9.94141 0.428833L15.9414 1.55383C17.7149 1.88652 19 3.43591 19 5.24036V14.7599C18.9998 16.5642 17.7148 18.1138 15.9414 18.4464L9.94141 19.5714C7.63375 20.0041 5.50022 18.2327 5.5 15.8849V14.0001C5.5 13.5859 5.83579 13.2501 6.25 13.2501C6.66421 13.2501 7 13.5859 7 14.0001V15.8849C7.00022 17.2935 8.2805 18.3564 9.66504 18.0968L15.665 16.9718C16.7289 16.7721 17.4998 15.8423 17.5 14.7599V5.24036C17.5 4.15777 16.729 3.22815 15.665 3.02844L9.66504 1.90344C8.28036 1.64381 7 2.70655 7 4.11536V6.25012C6.99981 6.66417 6.66409 7.00012 6.25 7.00012C5.83591 7.00012 5.50019 6.66417 5.5 6.25012V4.11536ZM10.2197 6.96985C10.5126 6.67696 10.9874 6.67696 11.2803 6.96985L13.7803 9.46985C14.0729 9.76276 14.0731 10.2376 13.7803 10.5304L11.2803 13.0304C10.9874 13.323 10.5126 13.323 10.2197 13.0304C9.92692 12.7376 9.92708 12.2628 10.2197 11.9698L11.4395 10.7501H3C2.42469 10.7501 2.06087 10.9373 1.84277 11.1554C1.61778 11.3805 1.5 11.6858 1.5 12.0001C1.50012 12.3144 1.61781 12.6197 1.84277 12.8448C2.06094 13.063 2.42501 13.2511 3 13.2511C3.41421 13.2511 3.75 13.5869 3.75 14.0011C3.74947 14.4149 3.41389 14.7511 3 14.7511C2.07534 14.7511 1.31408 14.4373 0.782227 13.9054C0.257594 13.3806 0.000122477 12.6854 0 12.0001C0 11.3147 0.257544 10.6197 0.782227 10.0948C1.31413 9.56295 2.07531 9.25012 3 9.25012H11.4395L10.2197 8.0304C9.92692 7.73758 9.92708 7.26276 10.2197 6.96985Z"
    fill="currentColor"
  />
</svg>

<svg xmlns="http://www.w3.org/2000/svg" width="20" height="20" fill="none" data-fui-icon="true" viewBox="0 0 20 20"><path fill="currentColor" d="M5.5 4.115A3.75 3.75 0 0 1 9.941.43l6 1.125A3.75 3.75 0 0 1 19 5.24v9.52a3.75 3.75 0 0 1-3.059 3.686l-6 1.125A3.75 3.75 0 0 1 5.5 15.885V14A.75.75 0 0 1 7 14v1.885a2.25 2.25 0 0 0 2.665 2.212l6-1.125A2.25 2.25 0 0 0 17.5 14.76V5.24a2.25 2.25 0 0 0-1.835-2.212l-6-1.125A2.25 2.25 0 0 0 7 4.115V6.25a.75.75 0 0 1-1.5 0zm4.72 2.855a.75.75 0 0 1 1.06 0l2.5 2.5a.75.75 0 0 1 0 1.06l-2.5 2.5a.75.75 0 0 1-1.06-1.06l1.22-1.22H3c-.575 0-.94.187-1.157.405A1.2 1.2 0 0 0 1.5 12c0 .314.118.62.343.845.218.218.582.406 1.157.406a.75.75 0 0 1 0 1.5c-.925 0-1.686-.314-2.218-.846A2.7 2.7 0 0 1 0 12c0-.685.258-1.38.782-1.905C1.314 9.563 2.075 9.25 3 9.25h8.44l-1.22-1.22a.75.75 0 0 1 0-1.06"/></svg>
